X: 35219
T: Ros Baltrasna
R: jig
M: 6/8
K: Amajor
F|:EFA ABc|BAB cee|fec ABc|BBA cAF|
EFA ABc|BAB cee|fec ABc|1 BAF A2 F:|2 BAF A2 B||
|:~c2 e Ace|fec eaa|fea fec|BAB cAB|
cee Ace|fec eaa|fea fec|1 BAF A2 B:|2 BAF A2 B||
cAA ABc|BAF EFA|cee e2 a|fec BBA|
cAA ABc|BAF EFA|cee ABc|BAF A2 B||
cAA ABc|BAF EFA|ccc ece|fec BBA|
ccB ABc|BAF EFA|cee ABc|BAF A2 F||

